src/images/svg/blog/articles/blog-article-email-subscription.svg

<svg width="168" height="114" viewBox="0 0 168 114" fill="none" xmlns="http://www.w3.org/2000/svg">
<path d="M120.274 47.9183L93.4045 72.9969L107.287 43.4399L120.274 47.9183Z" fill="#4A3871"/>
<path d="M93.4046 72.9969L86.2393 38.5138L166.401 1.34375L107.287 43.44L93.4046 72.9969Z" fill="#8773B4"/>
<path d="M107.287 43.44L166.401 1.34375L148.488 57.7706L107.287 43.44Z" fill="#6950A1"/>
<path d="M86.2393 38.5138L59.3694 32.2442L166.401 1.34375L86.2393 38.5138Z" fill="#6950A1"/>
<path fill-rule="evenodd" clip-rule="evenodd" d="M66.7402 58.205C66.7516 57.9579 66.9611 57.7669 67.2082 57.7783C69.4825 57.8834 71.414 59.0349 72.7866 60.9516C72.9306 61.1527 72.8843 61.4325 72.6833 61.5765C72.4822 61.7205 72.2024 61.6742 72.0584 61.4731C70.826 59.7522 69.1353 58.764 67.1669 58.673C66.9198 58.6616 66.7288 58.4521 66.7402 58.205ZM61.7211 59.8871C61.8589 60.0925 61.8041 60.3707 61.5987 60.5085C60.825 61.0275 60.0329 61.6633 59.2294 62.4246C58.6313 62.9912 58.1108 63.5676 57.6598 64.1493C57.5083 64.3448 57.227 64.3804 57.0315 64.2289C56.836 64.0774 56.8004 63.7961 56.9519 63.6006C57.4319 62.9814 57.9834 62.3712 58.6134 61.7744C59.4492 60.9825 60.2801 60.3145 61.0998 59.7647C61.3051 59.6269 61.5833 59.6817 61.7211 59.8871ZM74.4351 66.594C74.6807 66.565 74.9033 66.7407 74.9322 66.9863C75.0505 67.99 75.0897 69.0573 75.0429 70.1791C75.0054 71.0793 74.8798 72.0044 74.6653 72.9427C74.6102 73.1838 74.3701 73.3346 74.1289 73.2794C73.8878 73.2243 73.7371 72.9842 73.7922 72.7431C73.9952 71.8553 74.1129 70.9846 74.1481 70.1418C74.193 69.0642 74.155 68.0446 74.0427 67.0911C74.0138 66.8455 74.1894 66.6229 74.4351 66.594ZM55.2372 67.6856C55.4746 67.755 55.6109 68.0037 55.5415 68.2411C55.0808 69.818 54.9905 71.3738 55.1338 72.8253C55.1581 73.0714 54.9782 73.2907 54.7321 73.3149C54.486 73.3392 54.2667 73.1594 54.2424 72.9133C54.0893 71.3627 54.185 69.6904 54.6818 67.9899C54.7511 67.7525 54.9998 67.6163 55.2372 67.6856ZM90.599 75.2309C90.7666 75.4128 90.755 75.6961 90.5731 75.8637C89.9637 76.4253 89.3617 76.9606 88.767 77.4705C88.5792 77.6315 88.2965 77.6098 88.1355 77.4221C87.9745 77.2343 87.9962 76.9516 88.184 76.7906C88.7703 76.2879 89.3644 75.7597 89.9661 75.2051C90.148 75.0375 90.4313 75.049 90.599 75.2309ZM55.7582 77.0757C55.9832 76.973 56.2489 77.0721 56.3516 77.2971C56.715 78.0931 57.115 78.7734 57.4944 79.3046L57.5043 79.3185L57.5131 79.333C57.8791 79.9376 58.3415 80.5624 58.8996 81.1727C59.0665 81.3552 59.0538 81.6385 58.8713 81.8054C58.6888 81.9723 58.4055 81.9596 58.2386 81.7771C57.6463 81.1293 57.1513 80.4626 56.7557 79.8113C56.3439 79.2327 55.9194 78.507 55.5368 77.6691C55.4341 77.4441 55.5332 77.1785 55.7582 77.0757ZM72.4559 77.4827C72.6709 77.605 72.7461 77.8784 72.6238 78.0934C71.7637 79.606 70.6719 81.1009 69.343 82.5315C69.1747 82.7127 68.8914 82.7232 68.7102 82.5548C68.5289 82.3865 68.5185 82.1031 68.6868 81.9219C69.9705 80.5399 71.0207 79.1007 71.8453 77.6506C71.9675 77.4356 72.2409 77.3605 72.4559 77.4827ZM85.0658 79.8427C85.2099 80.0437 85.1637 80.3235 84.9627 80.4676C83.5574 81.4749 82.1983 82.3363 80.886 83.0658C80.6698 83.1859 80.3971 83.1081 80.277 82.8919C80.1568 82.6757 80.2346 82.4031 80.4508 82.2829C81.731 81.5713 83.0613 80.7285 84.4409 79.7396C84.6419 79.5955 84.9217 79.6417 85.0658 79.8427ZM61.9585 84.1739C62.0732 83.9548 62.3438 83.8702 62.5629 83.9849C63.8359 84.6513 65.3039 85.1622 66.9636 85.4125C67.2082 85.4494 67.3765 85.6776 67.3396 85.9221C67.3027 86.1667 67.0746 86.3351 66.83 86.2982C66.3221 86.2216 65.8306 86.1219 65.3559 86.0018C65.325 86.0695 65.2767 86.1303 65.2123 86.1773C63.8041 87.2026 62.2403 88.1602 60.5178 89.0265C60.2968 89.1376 60.0276 89.0486 59.9165 88.8276C59.8054 88.6067 59.8944 88.3374 60.1154 88.2263C61.6535 87.4528 63.059 86.606 64.3349 85.7044C63.5551 85.4467 62.8257 85.1334 62.1475 84.7784C61.9284 84.6637 61.8438 84.3931 61.9585 84.1739ZM76.7373 84.5331C76.8223 84.7654 76.7029 85.0226 76.4706 85.1075C74.8001 85.7186 73.2214 86.1064 71.7367 86.308C71.4916 86.3413 71.266 86.1696 71.2327 85.9245C71.1994 85.6795 71.3711 85.4538 71.6162 85.4205C73.0327 85.2281 74.5488 84.8569 76.1629 84.2664C76.3952 84.1814 76.6523 84.3008 76.7373 84.5331ZM55.7338 90.567C55.8132 90.8013 55.6876 91.0555 55.4533 91.1349C53.7996 91.6951 52.0368 92.1792 50.1633 92.574C49.9213 92.625 49.6837 92.4702 49.6327 92.2281C49.5817 91.9861 49.7366 91.7486 49.9786 91.6976C51.8185 91.3099 53.5469 90.8351 55.1659 90.2866C55.4002 90.2072 55.6544 90.3328 55.7338 90.567ZM28.1512 92.8104C28.1615 92.5633 28.3702 92.3713 28.6173 92.3817C29.4536 92.4166 30.3131 92.4736 31.1963 92.5539C32.1092 92.6369 33.0065 92.7031 33.8882 92.7532C34.1352 92.7673 34.324 92.9788 34.3099 93.2258C34.2959 93.4727 34.0844 93.6615 33.8374 93.6475C32.9454 93.5968 32.038 93.5298 31.1152 93.4459C30.2461 93.3669 29.4012 93.3109 28.5799 93.2765C28.3328 93.2662 28.1408 93.0575 28.1512 92.8104ZM23.9379 92.8694C23.9566 93.1161 23.7718 93.3311 23.5252 93.3498C21.729 93.4861 20.0712 93.7401 18.5424 94.0926C18.3014 94.1482 18.061 93.9978 18.0054 93.7568C17.9498 93.5158 18.1002 93.2754 18.3412 93.2198C19.9164 92.8566 21.619 92.5962 23.4575 92.4567C23.7041 92.438 23.9192 92.6228 23.9379 92.8694ZM45.1606 92.9284C45.1868 93.1744 45.0087 93.395 44.7627 93.4212C43.0216 93.6066 41.2014 93.7209 39.3012 93.7564C39.0539 93.761 38.8497 93.5643 38.8451 93.317C38.8405 93.0697 39.0372 92.8655 39.2845 92.8609C41.1595 92.8259 42.9535 92.7131 44.6679 92.5305C44.9138 92.5043 45.1344 92.6825 45.1606 92.9284ZM14.009 95.072C14.1093 95.2981 14.0074 95.5627 13.7813 95.663C12.151 96.3866 10.721 97.2418 9.47068 98.1868C9.27337 98.3359 8.99252 98.2969 8.84339 98.0995C8.69426 97.9022 8.73332 97.6214 8.93063 97.4723C10.2361 96.4856 11.7254 95.5955 13.418 94.8444C13.644 94.744 13.9086 94.846 14.009 95.072ZM5.82532 101.037C6.01879 101.191 6.05072 101.473 5.89663 101.666C4.8011 103.042 3.94987 104.488 3.30456 105.924C3.20318 106.15 2.93812 106.25 2.71252 106.149C2.48692 106.048 2.38621 105.782 2.48759 105.557C3.16138 104.057 4.05068 102.546 5.19601 101.108C5.3501 100.915 5.63185 100.883 5.82532 101.037ZM1.47566 110.174C1.71944 110.215 1.88318 110.447 1.84138 110.691C1.6902 111.572 1.61354 112.404 1.59871 113.161C1.59386 113.408 1.38946 113.605 1.14218 113.6C0.894896 113.595 0.698364 113.391 0.703213 113.144C0.718968 112.34 0.800177 111.463 0.958598 110.539C1.00039 110.295 1.23189 110.132 1.47566 110.174Z" fill="#1F1830"/>
</svg>

<svg width="168" height="114" fill="none" xmlns="http://www.w3.org/2000/svg"><path d="m120.274 47.918-26.87 25.079 13.883-29.557 12.987 4.478z" fill="#4A3871"/><path d="m93.405 72.997-7.166-34.483 80.162-37.17-59.114 42.096-13.882 29.557z" fill="#8773B4"/><path d="m107.287 43.44 59.114-42.096-17.913 56.427-41.201-14.331zM86.24 38.514l-26.87-6.27L166.4 1.344l-80.162 37.17z" fill="#6950A1"/><path fill-rule="evenodd" clip-rule="evenodd" d="M66.74 58.205a.448.448 0 0 1 .468-.427c2.275.105 4.206 1.257 5.579 3.174a.448.448 0 0 1-.729.521c-1.232-1.72-2.923-2.709-4.891-2.8a.448.448 0 0 1-.427-.468zm-5.019 1.682a.448.448 0 0 1-.122.621 18.24 18.24 0 0 0-2.37 1.917 15.249 15.249 0 0 0-1.57 1.724.448.448 0 1 1-.707-.548c.48-.62 1.031-1.23 1.661-1.827a19.128 19.128 0 0 1 2.487-2.01.448.448 0 0 1 .621.123zm12.714 6.707a.448.448 0 0 1 .497.392c.118 1.004.158 2.071.11 3.193-.037.9-.162 1.825-.377 2.764a.448.448 0 1 1-.873-.2c.203-.888.32-1.758.356-2.601a19.259 19.259 0 0 0-.105-3.05.448.448 0 0 1 .392-.498zm-19.198 1.092c.238.069.374.318.304.555a12.057 12.057 0 0 0-.407 4.584.448.448 0 0 1-.892.088 12.952 12.952 0 0 1 .44-4.923.448.448 0 0 1 .555-.304zM90.6 75.23a.448.448 0 0 1-.026.633 67.498 67.498 0 0 1-1.806 1.606.448.448 0 0 1-.583-.68c.586-.502 1.18-1.03 1.782-1.585a.448.448 0 0 1 .633.026zm-34.84 1.845a.448.448 0 0 1 .593.221c.363.796.763 1.476 1.142 2.008l.01.013.01.015c.365.605.828 1.23 1.386 1.84a.448.448 0 0 1-.661.604 12.714 12.714 0 0 1-1.483-1.966 13.157 13.157 0 0 1-1.22-2.142.448.448 0 0 1 .222-.593zm16.697.407c.215.122.29.395.168.61a23.91 23.91 0 0 1-3.281 4.438.448.448 0 1 1-.656-.61 23.02 23.02 0 0 0 3.158-4.27.448.448 0 0 1 .61-.168zm12.61 2.36a.448.448 0 0 1-.103.625 42.254 42.254 0 0 1-4.077 2.598.448.448 0 0 1-.435-.783 41.345 41.345 0 0 0 3.99-2.543.448.448 0 0 1 .625.103zm-23.108 4.33a.448.448 0 0 1 .605-.188 13.927 13.927 0 0 0 4.4 1.427.448.448 0 1 1-.133.886c-.508-.076-1-.176-1.474-.296a.446.446 0 0 1-.144.175 33.654 33.654 0 0 1-4.694 2.85.448.448 0 1 1-.403-.8 32.974 32.974 0 0 0 4.22-2.523c-.78-.257-1.51-.57-2.187-.926a.448.448 0 0 1-.19-.604zm14.78.36a.448.448 0 0 1-.267.575c-1.67.61-3.25.998-4.734 1.2a.448.448 0 1 1-.12-.888c1.416-.192 2.932-.563 4.546-1.154a.448.448 0 0 1 .574.267zm-21.004 6.034a.448.448 0 0 1-.28.568 46.12 46.12 0 0 1-5.29 1.439.448.448 0 1 1-.185-.876 45.21 45.21 0 0 0 5.187-1.411.448.448 0 0 1 .568.28zM28.15 92.81a.448.448 0 0 1 .466-.428 52.8 52.8 0 0 1 2.58.172c.912.083 1.81.15 2.691.2a.448.448 0 1 1-.05.893c-.893-.05-1.8-.117-2.723-.201a52.088 52.088 0 0 0-2.535-.17.448.448 0 0 1-.429-.466zm-4.213.06a.448.448 0 0 1-.413.48c-1.796.136-3.454.39-4.983.743a.448.448 0 0 1-.2-.873 34.305 34.305 0 0 1 5.116-.763.448.448 0 0 1 .48.412zm21.223.058a.448.448 0 0 1-.398.493c-1.741.186-3.562.3-5.462.335a.448.448 0 1 1-.017-.895 61.702 61.702 0 0 0 5.384-.33.448.448 0 0 1 .493.397zm-31.152 2.144c.1.226-.002.49-.228.591a21.762 21.762 0 0 0-4.31 2.524.448.448 0 0 1-.54-.715 22.649 22.649 0 0 1 4.487-2.628c.226-.1.49.002.591.228zm-8.184 5.965a.448.448 0 0 1 .072.629 19.986 19.986 0 0 0-2.592 4.258.448.448 0 1 1-.817-.367 20.854 20.854 0 0 1 2.708-4.449.448.448 0 0 1 .63-.071zm-4.35 9.137a.447.447 0 0 1 .366.517 16.61 16.61 0 0 0-.242 2.47.448.448 0 0 1-.896-.017c.016-.804.097-1.681.256-2.605a.447.447 0 0 1 .517-.365z" fill="#1F1830"/></svg>
